img/logo.svg

<svg width="53" height="38" viewBox="0 0 53 38" fill="none" xmlns="http://www.w3.org/2000/svg">
<path d="M0 8.56477C0 6.10363 0.8 4.13472 2.4 2.46114C4.1 0.88601 6.1 0 8.6 0C11.2 0 13.2 0.689119 14.8 2.1658L13.6 3.93782C13 3.34715 12.2 2.95337 11.3 2.65803C10.4 2.36269 9.6 2.1658 8.7 2.1658C6.8 2.1658 5.3 2.75648 4.1 3.93782C3 5.21762 2.5 6.6943 2.5 8.56477C2.5 10.4352 3.1 12.0104 4.2 13.2902C5.4 14.5699 6.9 15.1606 8.8 15.1606C9.7 15.1606 10.7 14.9637 11.6 14.5699C12.5 14.1762 13.3 13.6839 14 12.9948L15.3 14.6684C13.5 16.4404 11.3 17.3264 8.7 17.3264C6.1 17.3264 4 16.5389 2.4 14.8653C0.8 13.0933 0 11.0259 0 8.56477Z" fill="white"/>
<path d="M18.3 17.0311V0.295334H20.6V7.58031H29.4V0.295334H31.8V16.9326H29.4V9.64767H20.6V16.9326H18.3V17.0311Z" fill="white"/>
<path d="M35.2 8.56477C35.2 6.20207 36 4.13472 37.7 2.46114C39.3 0.787565 41.4 0 43.9 0C46.4 0 48.5 0.787565 50.1 2.46114C51.8 4.13472 52.6 6.10363 52.6 8.56477C52.6 11.0259 51.8 13.0933 50.1 14.7668C48.4 16.4404 46.4 17.3264 43.9 17.3264C41.4 17.3264 39.3 16.4404 37.7 14.7668C36 13.0933 35.2 11.0259 35.2 8.56477ZM37.7 8.56477C37.7 10.4352 38.3 12.0104 39.5 13.2902C40.7 14.5699 42.2 15.1606 44 15.1606C45.8 15.1606 47.3 14.5699 48.5 13.2902C49.7 12.0104 50.3 10.4352 50.3 8.56477C50.3 6.79275 49.7 5.21762 48.5 4.03627C47.3 2.85492 45.8 2.1658 44 2.1658C42.2 2.1658 40.7 2.75648 39.5 4.03627C38.2 5.21762 37.7 6.6943 37.7 8.56477Z" fill="white"/>
<path d="M0 29.2383C0 26.7772 0.8 24.8083 2.4 23.1347C4.1 21.5596 6.1 20.6736 8.6 20.6736C11.2 20.6736 13.2 21.3627 14.8 22.8394L13.6 24.6114C13 24.0207 12.2 23.6269 11.3 23.3316C10.4 23.0363 9.5 22.8394 8.7 22.8394C6.8 22.8394 5.3 23.43 4.1 24.6114C3 25.7927 2.4 27.3679 2.4 29.1399C2.4 31.0104 3 32.5855 4.1 33.8653C5.3 35.1451 6.8 35.7357 8.7 35.7357C9.6 35.7357 10.6 35.5389 11.5 35.1451C12.4 34.7513 13.2 34.2591 13.9 33.5699L15.2 35.2435C13.4 37.0155 11.2 37.9015 8.6 37.9015C6 37.9015 3.9 37.114 2.3 35.4404C0.8 33.7668 0 31.6995 0 29.2383Z" fill="white"/>
<path d="M16.8 29.2383C16.8 26.7772 17.6 24.8083 19.2 23.1347C20.8 21.5596 22.9 20.6736 25.4 20.6736C28 20.6736 30 21.3627 31.6 22.8394L30.4 24.6114C29.8 24.0207 29 23.6269 28.1 23.3316C27.2 23.0363 26.3 22.8394 25.5 22.8394C23.6 22.8394 22.1 23.43 20.9 24.6114C19.8 25.7927 19.2 27.3679 19.2 29.1399C19.2 31.0104 19.8 32.5855 20.9 33.8653C22.1 35.1451 23.6 35.7357 25.5 35.7357C26.4 35.7357 27.4 35.5389 28.3 35.1451C29.2 34.7513 30 34.2591 30.7 33.5699L32 35.2435C30.2 37.0155 28 37.9015 25.4 37.9015C22.8 37.9015 20.7 37.114 19.1 35.4404C17.6 33.7668 16.8 31.6995 16.8 29.2383Z" fill="white"/>
<path d="M33.6 29.2383C33.6 26.8756 34.4 24.8083 36.1 23.1347C37.7 21.4611 39.8 20.6736 42.3 20.6736C44.8 20.6736 46.9 21.4611 48.5 23.1347C50.1 24.8083 51 26.7772 51 29.2383C51 31.6995 50.2 33.7668 48.5 35.4404C46.8 37.114 44.8 38 42.3 38C39.8 38 37.7 37.114 36.1 35.4404C34.4 33.7668 33.6 31.6995 33.6 29.2383ZM36 29.2383C36 31.1088 36.6 32.6839 37.8 33.9637C39 35.2435 40.5 35.8342 42.3 35.8342C44.1 35.8342 45.6 35.2435 46.8 33.9637C48 32.6839 48.6 31.1088 48.6 29.2383C48.6 27.4663 48 25.8912 46.8 24.7098C45.6 23.5285 44.1 22.8394 42.3 22.8394C40.5 22.8394 39 23.43 37.8 24.7098C36.6 25.8912 36 27.3679 36 29.2383Z" fill="white"/>
</svg>

<svg width="53" height="38" fill="none" xmlns="http://www.w3.org/2000/svg"><path d="M0 8.565c0-2.461.8-4.43 2.4-6.104C4.1.886 6.1 0 8.6 0c2.6 0 4.6.69 6.2 2.166l-1.2 1.772c-.6-.59-1.4-.985-2.3-1.28-.9-.295-1.7-.492-2.6-.492-1.9 0-3.4.59-4.6 1.772C3 5.218 2.5 6.694 2.5 8.565c0 1.87.6 3.445 1.7 4.725 1.2 1.28 2.7 1.87 4.6 1.87.9 0 1.9-.196 2.8-.59.9-.394 1.7-.886 2.4-1.575l1.3 1.673c-1.8 1.772-4 2.658-6.6 2.658-2.6 0-4.7-.787-6.3-2.46C.8 13.092 0 11.025 0 8.564zm18.3 8.466V.295h2.3V7.58h8.8V.295h2.4v16.638h-2.4V9.648h-8.8v7.285h-2.3v.098zm16.9-8.466c0-2.363.8-4.43 2.5-6.104C39.3.788 41.4 0 43.9 0s4.6.788 6.2 2.461c1.7 1.674 2.5 3.643 2.5 6.104 0 2.46-.8 4.528-2.5 6.202-1.7 1.673-3.7 2.56-6.2 2.56s-4.6-.887-6.2-2.56c-1.7-1.674-2.5-3.741-2.5-6.202zm2.5 0c0 1.87.6 3.445 1.8 4.725 1.2 1.28 2.7 1.87 4.5 1.87 1.8 0 3.3-.59 4.5-1.87 1.2-1.28 1.8-2.855 1.8-4.725 0-1.772-.6-3.347-1.8-4.529-1.2-1.181-2.7-1.87-4.5-1.87-1.8 0-3.3.59-4.5 1.87-1.3 1.182-1.8 2.658-1.8 4.529zM0 29.238c0-2.46.8-4.43 2.4-6.103 1.7-1.575 3.7-2.461 6.2-2.461 2.6 0 4.6.689 6.2 2.165l-1.2 1.772c-.6-.59-1.4-.984-2.3-1.28-.9-.295-1.8-.492-2.6-.492-1.9 0-3.4.591-4.6 1.772-1.1 1.182-1.7 2.757-1.7 4.529 0 1.87.6 3.446 1.7 4.725 1.2 1.28 2.7 1.87 4.6 1.87.9 0 1.9-.196 2.8-.59.9-.394 1.7-.886 2.4-1.575l1.3 1.673c-1.8 1.773-4 2.658-6.6 2.658-2.6 0-4.7-.787-6.3-2.46C.8 33.766 0 31.698 0 29.237zm16.8 0c0-2.46.8-4.43 2.4-6.103 1.6-1.575 3.7-2.461 6.2-2.461 2.6 0 4.6.689 6.2 2.165l-1.2 1.772c-.6-.59-1.4-.984-2.3-1.28-.9-.295-1.8-.492-2.6-.492-1.9 0-3.4.591-4.6 1.772-1.1 1.182-1.7 2.757-1.7 4.529 0 1.87.6 3.446 1.7 4.725 1.2 1.28 2.7 1.87 4.6 1.87.9 0 1.9-.196 2.8-.59.9-.394 1.7-.886 2.4-1.575l1.3 1.673c-1.8 1.773-4 2.658-6.6 2.658-2.6 0-4.7-.787-6.3-2.46-1.5-1.674-2.3-3.742-2.3-6.203zm16.8 0c0-2.362.8-4.43 2.5-6.103 1.6-1.674 3.7-2.461 6.2-2.461s4.6.787 6.2 2.46c1.6 1.674 2.5 3.643 2.5 6.104 0 2.462-.8 4.529-2.5 6.202-1.7 1.674-3.7 2.56-6.2 2.56s-4.6-.886-6.2-2.56c-1.7-1.673-2.5-3.74-2.5-6.202zm2.4 0c0 1.87.6 3.446 1.8 4.726 1.2 1.28 2.7 1.87 4.5 1.87 1.8 0 3.3-.59 4.5-1.87 1.2-1.28 1.8-2.855 1.8-4.726 0-1.772-.6-3.347-1.8-4.528-1.2-1.181-2.7-1.87-4.5-1.87-1.8 0-3.3.59-4.5 1.87-1.2 1.181-1.8 2.658-1.8 4.528z" fill="#fff"/></svg>
